src/emblems/16/vcs-added.svg

<svg version="1.1" viewBox="0 0 16 16" xmlns="http://www.w3.org/2000/svg">
 <path d="m8 1a7 7 0 0 0-7 7 7 7 0 0 0 7 7 7 7 0 0 0 7-7 7 7 0 0 0-7-7z" fill="#ebcb8b"/>
 <path d="m7 3v4h-4v2h4v4h2v-4h4v-2h-4v-4h-2z" fill="#fff"/>
</svg>

<svg xmlns="http://www.w3.org/2000/svg" viewBox="0 0 16 16">
 <path 
     style="fill:#fdbc4b;fill-opacity:1;stroke:none" 
     d="M 8 1 A 7 7 0 0 0 1 8 A 7 7 0 0 0 8 15 A 7 7 0 0 0 15 8 A 7 7 0 0 0 8 1 z "
     />
 <path 
     style="fill:#ffffff;fill-opacity:1;stroke:none" 
     d="M 7 3 L 7 7 L 3 7 L 3 9 L 7 9 L 7 13 L 9 13 L 9 9 L 13 9 L 13 7 L 9 7 L 9 3 L 7 3 z "
     />
</svg>
